assets/icons/bank.svg

<svg width="20" height="20" viewBox="0 0 20 20" fill="none" xmlns="http://www.w3.org/2000/svg">
<path d="M1.66797 7.14122C1.66797 6.1444 2.06995 5.53351 2.90183 5.07056L6.32619 3.16486C8.12055 2.16628 9.01772 1.66699 10.0013 1.66699C10.9849 1.66699 11.8821 2.16628 13.6764 3.16486L17.1008 5.07056C17.9326 5.53351 18.3346 6.14441 18.3346 7.14122C18.3346 7.41152 18.3346 7.54667 18.3051 7.65778C18.1501 8.24153 17.6211 8.33366 17.1102 8.33366H2.89237C2.38153 8.33366 1.85257 8.24153 1.69749 7.65778C1.66797 7.54667 1.66797 7.41152 1.66797 7.14122Z" stroke="#7F7F7F" stroke-width="1.5"/>
<path d="M9.99609 5.83301H10.0036" stroke="#7F7F7F" stroke-width="2" stroke-linecap="round" stroke-linejoin="round"/>
<path d="M3.33203 8.33301V15.4163M6.66536 8.33301V15.4163" stroke="#7F7F7F" stroke-width="1.5"/>
<path d="M13.332 8.33301V15.4163M16.6654 8.33301V15.4163" stroke="#7F7F7F" stroke-width="1.5"/>
<path d="M15.8346 15.417H4.16797C2.78726 15.417 1.66797 16.5362 1.66797 17.917C1.66797 18.1471 1.85452 18.3337 2.08464 18.3337H17.918C18.1481 18.3337 18.3346 18.1471 18.3346 17.917C18.3346 16.5362 17.2154 15.417 15.8346 15.417Z" stroke="#7F7F7F" stroke-width="1.5"/>
</svg>

<svg xmlns="http://www.w3.org/2000/svg" width="20" height="20" fill="none" viewBox="0 0 20 20"><path stroke="#7f7f7f" stroke-width="1.5" d="M1.668 7.141c0-.997.402-1.607 1.234-2.07l3.424-1.906c1.795-.999 2.692-1.498 3.675-1.498.984 0 1.881.5 3.675 1.498l3.425 1.906c.832.463 1.234 1.073 1.234 2.07 0 .27 0 .406-.03.517-.155.584-.684.676-1.195.676H2.892c-.51 0-1.04-.092-1.195-.676-.029-.111-.029-.246-.029-.517Z"/><path stroke="#7f7f7f" stroke-linecap="round" stroke-linejoin="round" stroke-width="2" d="M9.996 5.833h.008"/><path stroke="#7f7f7f" stroke-width="1.5" d="M3.332 8.333v7.083m3.333-7.083v7.083m6.667-7.083v7.083m3.333-7.083v7.083m-.83.001H4.168a2.5 2.5 0 0 0-2.5 2.5c0 .23.187.417.417.417h15.833c.23 0 .417-.187.417-.417a2.5 2.5 0 0 0-2.5-2.5Z"/></svg>
